src/assets/principle-inverse.svg

<?xml version="1.0" encoding="UTF-8" standalone="no"?>
<svg
   xmlns:dc="http://purl.org/dc/elements/1.1/"
   xmlns:cc="http://creativecommons.org/ns#"
   xmlns:rdf="http://www.w3.org/1999/02/22-rdf-syntax-ns#"
   xmlns:svg="http://www.w3.org/2000/svg"
   xmlns="http://www.w3.org/2000/svg"
   width="24.632002mm"
   height="24.632002mm"
   viewBox="0 0 24.632001 24.632002"
   version="1.1"
   id="svg6165">
  <defs
     id="defs6159">
    <clipPath
       clipPathUnits="userSpaceOnUse"
       id="clipPath896-0">
      <path
         d="M 0,841.89 H 595.276 V 0 H 0 Z"
         id="path894-3" />
    </clipPath>
    <clipPath
       clipPathUnits="userSpaceOnUse"
       id="clipPath6104">
      <path
         d="M 0,841.89 H 595.276 V 0 H 0 Z"
         id="path6102" />
    </clipPath>
    <clipPath
       clipPathUnits="userSpaceOnUse"
       id="clipPath972-1">
      <path
         d="M 0,841.89 H 595.276 V 0 H 0 Z"
         id="path970-0" />
    </clipPath>
    <clipPath
       clipPathUnits="userSpaceOnUse"
       id="clipPath1056-3">
      <path
         d="M 0,841.89 H 595.276 V 0 H 0 Z"
         id="path1054-6" />
    </clipPath>
    <clipPath
       clipPathUnits="userSpaceOnUse"
       id="clipPath1116-7">
      <path
         d="M 0,841.89 H 595.276 V 0 H 0 Z"
         id="path1114-3" />
    </clipPath>
  </defs>
  <metadata
     id="metadata6162">
    <rdf:RDF>
      <cc:Work
         rdf:about="">
        <dc:format>image/svg+xml</dc:format>
        <dc:type
           rdf:resource="http://purl.org/dc/dcmitype/StillImage" />
        <dc:title></dc:title>
      </cc:Work>
    </rdf:RDF>
  </metadata>
  <g
     id="layer1"
     transform="translate(-376.4567,-159.95185)">
    <g
       id="g7466-2"
       transform="translate(276.35163,138.15913)">
      <g
         id="g1112-8"
         clip-path="url(#clipPath1116-7)"
         transform="matrix(0.35277777,0,0,-0.35277777,7.5504392,116.01712)">
        <g
           style="fill:#ffffff"
           id="g1118-9"
           transform="translate(332.1826,232.1808)">
          <path
             id="path1120-2"
             transform="matrix(0.75000002,0,0,-0.75000002,-69.823011,34.911993)"
             d="M 46.548828 0 C 20.842162 1.8947806e-14 0 20.840829 0 46.548828 C -1.8947806e-14 72.255494 20.842162 93.097656 46.548828 93.097656 C 72.256827 93.097656 93.097656 72.255494 93.097656 46.548828 C 93.097656 20.840829 72.256827 0 46.548828 0 z M 53.871094 19.894531 C 56.294656 19.845344 58.702844 19.922469 61.089844 20.605469 C 63.943177 21.424135 66.825792 22.134568 69.703125 22.865234 C 70.367125 23.033234 71.060141 23.086693 71.744141 23.193359 C 72.122807 24.265359 72.133667 24.489422 71.875 26.357422 C 71.357667 26.462755 70.806182 26.57475 70.103516 26.71875 C 70.200849 27.18275 70.216953 27.604938 70.376953 27.960938 C 73.364953 34.646271 76.37038 41.322667 79.373047 48 C 79.765047 48.873333 80.110406 49.769469 80.566406 50.605469 C 80.797073 51.032135 81.223891 51.350807 81.587891 51.744141 C 74.738557 60.50014 62.146823 59.109213 56.660156 51.810547 C 57.024156 51.39188 57.496797 51.040979 57.716797 50.570312 C 58.996797 47.827646 60.219698 45.058208 61.457031 42.296875 C 63.238365 38.327542 65.022302 34.356859 66.792969 30.380859 C 67.304969 29.232859 67.773516 28.065453 68.353516 26.689453 C 66.682849 26.406786 65.211859 26.563776 63.755859 26.537109 C 62.213193 26.506443 60.667667 26.53125 59.125 26.53125 L 54.654297 26.53125 L 50.277344 26.53125 C 49.918677 27.86325 49.793281 63.607792 50.113281 66.453125 C 54.999948 67.879792 60.130261 68.689115 65.183594 70.175781 L 65.183594 72.951172 C 63.80626 73.292505 29.91549 73.306891 28.410156 72.962891 L 28.410156 70.160156 C 33.363489 68.722823 38.498969 67.761089 43.542969 66.482422 L 43.542969 26.789062 C 41.957635 26.406396 26.410557 26.44251 25.087891 26.839844 C 25.215891 27.23051 25.310609 27.631286 25.474609 28.001953 C 27.681276 33.007286 29.885281 38.013146 32.113281 43.007812 C 33.215948 45.479812 34.345766 47.938813 35.509766 50.382812 C 35.755099 50.896146 36.203891 51.3125 36.587891 51.8125 C 29.706557 60.215166 17.633765 59.386953 11.509766 51.626953 C 12.469766 51.50162 12.727682 50.737635 13.041016 50.042969 C 14.518349 46.749636 15.975979 43.447724 17.445312 40.150391 C 19.173312 36.271724 20.910146 32.395625 22.632812 28.515625 C 22.862146 27.994292 23.034583 27.446583 23.28125 26.78125 C 22.583917 26.62125 22.045198 26.49699 21.394531 26.347656 L 21.394531 23.275391 C 22.610531 23.108724 23.86451 23.004667 25.089844 22.75 C 26.437844 22.47 27.758557 22.05674 29.087891 21.691406 C 30.977224 21.170073 32.833193 20.418542 34.755859 20.171875 C 37.001193 19.885208 39.302125 20.018573 41.578125 20.003906 C 44.866125 19.983906 48.158026 20.07675 51.443359 19.96875 C 52.254693 19.942083 53.06324 19.910927 53.871094 19.894531 z M 24.259766 30.650391 C 23.125099 32.098391 15.395896 49.943901 15.226562 51.365234 C 17.913229 51.686568 32.180375 51.556099 33.484375 51.134766 C 32.484375 48.864099 31.492094 46.604276 30.496094 44.349609 C 29.47076 42.024276 28.509292 39.666099 27.390625 37.384766 C 26.317292 35.192766 25.627766 32.805057 24.259766 30.650391 z M 69.058594 31.255859 C 65.92526 38.109193 62.939979 44.637547 59.945312 51.185547 C 61.274646 51.573547 76.178703 51.606786 77.970703 51.189453 C 76.484036 47.77212 75.095234 44.476083 73.615234 41.21875 C 72.147234 37.98675 70.870594 34.658526 69.058594 31.255859 z "
             style="fill:#ffffff;fill-opacity:1;fill-rule:nonzero;stroke:none;stroke-width:1.33333325" />
        </g>
        <g
           id="g1122-4"
           transform="translate(320.8379,228.7013)" />
      </g>
    </g>
  </g>
</svg>

<svg xmlns="http://www.w3.org/2000/svg" width="93.097" height="93.097" viewBox="0 0 24.632 24.632"><defs><clipPath clipPathUnits="userSpaceOnUse" id="a"><path d="M0 841.89h595.276V0H0z"/></clipPath></defs><g clip-path="url(#a)" transform="matrix(.35278 0 0 -.35278 -92.555 94.224)"><g style="fill:#fff"><path transform="matrix(.75 0 0 -.75 262.36 267.093)" d="M46.549 0C20.842 0 0 20.84 0 46.549c0 25.706 20.842 46.549 46.549 46.549 25.708 0 46.549-20.843 46.549-46.55C93.098 20.842 72.257 0 46.548 0zm7.322 19.895c2.424-.05 4.832.027 7.219.71 2.853.82 5.736 1.53 8.613 2.26.664.168 1.357.222 2.041.328.379 1.072.39 1.296.131 3.164l-1.771.362c.097.464.113.886.273 1.242C73.365 34.646 76.37 41.323 79.373 48c.392.873.737 1.77 1.193 2.605.231.427.658.746 1.022 1.14-6.85 8.755-19.441 7.364-24.928.066.364-.42.837-.77 1.057-1.24 1.28-2.743 2.503-5.513 3.74-8.274 1.781-3.97 3.565-7.94 5.336-11.916.512-1.148.98-2.316 1.56-3.692-1.67-.282-3.141-.125-4.597-.152-1.543-.03-3.088-.006-4.631-.006H50.277c-.358 1.332-.484 37.077-.164 39.922C55 67.88 60.13 68.69 65.183 70.176v2.775c-1.377.342-35.268.356-36.773.012V70.16c4.953-1.437 10.089-2.399 15.133-3.678V26.79c-1.585-.383-17.132-.346-18.455.05.128.392.223.792.387 1.163 2.206 5.005 4.41 10.011 6.638 15.006a325.953 325.953 0 0 0 3.397 7.375c.245.513.694.93 1.078 1.43-6.881 8.402-18.954 7.574-25.078-.186.96-.125 1.218-.89 1.531-1.584 1.477-3.293 2.935-6.595 4.404-9.893 1.728-3.878 3.465-7.754 5.188-11.634.23-.522.402-1.07.648-1.735l-1.886-.433v-3.073c1.216-.166 2.47-.27 3.695-.525 1.348-.28 2.669-.693 3.998-1.059 1.89-.52 3.745-1.272 5.668-1.52 2.245-.286 4.546-.152 6.822-.167 3.288-.02 6.58.073 9.865-.035.812-.027 1.62-.058 2.428-.074zM24.26 30.65c-1.135 1.448-8.864 19.294-9.033 20.715 2.686.322 16.953.191 18.257-.23-1-2.27-1.992-4.53-2.988-6.785-1.025-2.326-1.987-4.684-3.105-6.965-1.074-2.192-1.763-4.58-3.131-6.735zm44.799.606-9.114 19.93c1.33.388 16.234.42 18.026.003-1.487-3.417-2.876-6.713-4.356-9.97-1.468-3.232-2.744-6.56-4.556-9.963z" style="fill:#fff;fill-opacity:1;fill-rule:nonzero;stroke:none;stroke-width:1.33333325"/></g></g></svg>
